brandFactory_export/2.Regular/Libreria digital_2Regular.svg

<?xml version="1.0" encoding="UTF-8"?>
<svg width="24px" height="24px" viewBox="0 0 24 24" version="1.1" xmlns="http://www.w3.org/2000/svg" xmlns:xlink="http://www.w3.org/1999/xlink">
    <title>2.Regular/Libreria digital_2Regular</title>
    <g id="Symbols" stroke="none" stroke-width="1" fill="none" fill-rule="evenodd">
        <g id="2.Regular/Libreria-digital_2Regular" fill="#5CB615" fill-rule="nonzero">
            <path d="M13.5495798,18.6722689 C11.2403361,18.7798319 9.34453782,19.3815126 8.23529412,19.8218487 L8.23529412,11.2436975 C10.2285714,10.2722689 12.4638655,10.1310924 13.5495798,10.1277311 L13.5495798,18.6722689 Z M1.4789916,10.1277311 C2.56470588,10.1310924 4.79327731,10.2689076 6.79327731,11.2436975 L6.79327731,19.8218487 C5.68403361,19.3815126 3.78823529,18.7798319 1.4789916,18.6722689 L1.4789916,10.1277311 Z M4.57815126,5.89579832 C4.57815126,5.09915966 4.76638655,4.50084034 5.13277311,4.11428571 C5.51260504,3.71764706 6.11428571,3.51260504 6.9210084,3.51260504 L19.8689076,3.50588235 C20.6756303,3.50588235 21.2806723,3.70756303 21.6571429,4.10756303 C22.0235294,4.49411765 22.2084034,5.09243697 22.2084034,5.88907563 L22.2084034,12.1579832 C22.2084034,12.9579832 22.0235294,13.5630252 21.6537815,13.9563025 C21.2739496,14.3630252 20.6722689,14.5680672 19.8689076,14.5680672 L14.9915966,14.5714286 L14.9915966,9.40504202 C14.9915966,9.01848739 14.702521,8.69243697 14.3260504,8.66218487 C14.1714286,8.65210084 10.6352941,8.38655462 7.5092437,9.95630252 C6.53445378,9.46554622 5.51932773,9.15294118 4.57815126,8.95798319 L4.57815126,5.89579832 Z M19.8722689,16.0571429 C21.0823529,16.0571429 22.0336134,15.697479 22.6991597,14.9882353 C23.3344538,14.3092437 23.6571429,13.3546218 23.6571429,12.1579832 L23.6571429,5.88907563 C23.6571429,4.68907563 23.3310924,3.74117647 22.692437,3.06890756 C22.0302521,2.37310924 21.0823529,2.02016807 19.8689076,2.02016807 L6.9210084,2.02689076 C5.70756303,2.02689076 4.75966387,2.37983193 4.09747899,3.07563025 C3.45882353,3.7512605 3.13277311,4.69915966 3.13277311,5.89915966 L3.13277311,8.73277311 C1.76470588,8.58487395 0.776470588,8.65882353 0.695798319,8.66554622 C0.322689076,8.69579832 0.0302521008,9.02184874 0.0302521008,9.40840336 L0.0302521008,19.405042 C0.0302521008,19.8151261 0.352941176,20.1478992 0.752941176,20.1478992 C4.38991597,20.1478992 7.14957983,21.6067227 7.17647059,21.6201681 C7.28067227,21.6773109 7.39495798,21.7042017 7.5092437,21.7042017 C7.52941176,21.7042017 7.54621849,21.6907563 7.56302521,21.687395 C7.6605042,21.6806723 7.75798319,21.6638655 7.84537815,21.6168067 C7.87226891,21.6033613 10.6117647,20.1445378 14.2689076,20.1445378 C14.6689076,20.1445378 14.9915966,19.8117647 14.9915966,19.4016807 L14.9915966,18.4773109 L22.9310924,18.4773109 C23.3310924,18.4773109 23.6537815,18.1445378 23.6537815,17.7344538 C23.6537815,17.3243697 23.3310924,16.9915966 22.9310924,16.9915966 L14.9915966,16.9915966 L14.9915966,16.0605042 L19.8722689,16.0571429 L19.8722689,16.0571429 Z" id="Libreria-digital_2Regular"></path>
        </g>
    </g>
</svg>

<svg width="24" height="24" viewBox="0 0 24 24" xmlns="http://www.w3.org/2000/svg"><path d="M13.55 18.672a16.74 16.74 0 00-5.315 1.15v-8.578c1.994-.972 4.229-1.113 5.315-1.116v8.544zM1.479 10.128c1.086.003 3.314.14 5.314 1.116v8.578a16.74 16.74 0 00-5.314-1.15v-8.544zm3.1-4.232c0-.797.187-1.395.554-1.782.38-.396.981-.601 1.788-.601l12.948-.007c.807 0 1.412.202 1.788.602.367.386.551.984.551 1.781v6.269c0 .8-.184 1.405-.554 1.798-.38.407-.982.612-1.785.612l-4.877.003V9.405a.737.737 0 00-.666-.743c-.155-.01-3.69-.275-6.817 1.294-.975-.49-1.99-.803-2.93-.998V5.896zm15.293 10.161c1.21 0 2.162-.36 2.827-1.069.635-.679.958-1.633.958-2.83V5.889c0-1.2-.326-2.148-.965-2.82-.662-.696-1.61-1.049-2.823-1.049L6.92 2.027c-1.213 0-2.161.353-2.824 1.049-.638.675-.964 1.623-.964 2.823v2.834C1.765 8.585.776 8.659.696 8.666a.74.74 0 00-.666.742v9.997c0 .41.323.743.723.743 3.637 0 6.397 1.459 6.423 1.472a.69.69 0 00.333.084c.02 0 .037-.013.054-.017a.687.687 0 00.282-.07c.027-.014 2.767-1.472 6.424-1.472.4 0 .723-.333.723-.743v-.925h7.94c.4 0 .722-.332.722-.743a.733.733 0 00-.723-.742h-7.94v-.931l4.881-.004z" fill="#5CB615" fill-rule="nonzero"/></svg>
